;FLAVOR:RepRap
;TIME:4523
;Filament used: 4.13729m
;Layer height: 0.2
;Generated with Cura_SteamEngine 3.2.1
T0
M190 S60
M104 S200
M109 S200
M82 ;absolute extrusion mode
G21 ;metric values
G90 ;absolute positioning
M82 ;set extruder to absolute mode
M107 ;start with the fan off
G28 ;Home all axes (max endstops)
G1 Z15.0 F9000 ;move the platform down 15mm
G92 E0 ;zero the extruded length
;G1 F200 E3 ;extrude 3mm of feed stock
G92 E0 ;zero the extruded length again
G1 F9000
;Put printing message on LCD screen
M117 Printing...
M83 ;relative extrusion mode
;LAYER_COUNT:100
;LAYER:0
M107
G0 F3600 X-3.72 Y33.179 Z0.3
;TYPE:SKIRT
G1 F1800 X-4.447 Y33.099 E0.03649
G1 X-6.035 Y32.847 E0.08022
G1 X-6.757 Y32.697 E0.03679
G1 X-9.869 Y31.896 E0.16032
G1 X-10.571 Y31.679 E0.03666
G1 X-12.085 Y31.133 E0.0803
G1 X-12.54 Y30.953 E0.02441
G1 X-14.015 Y30.314 E0.0802
G1 X-14.456 Y30.106 E0.02433
G1 X-15.89 Y29.375 E0.0803
G1 X-16.535 Y29.007 E0.03705
G1 X-19.248 Y27.281 E0.16042
G1 X-20.032 Y26.71 E0.04839
G1 X-22.496 Y24.672 E0.15953
G1 X-23.04 Y24.177 E0.03669
G1 X-24.178 Y23.039 E0.08029
G1 X-24.674 Y22.494 E0.03676
G1 X-26.722 Y20.017 E0.16035
G1 X-27.162 Y19.432 E0.03652
G1 X-28.066 Y18.102 E0.08023
G1 X-28.326 Y17.693 E0.02418
G1 X-29.146 Y16.309 E0.08026
G1 X-29.387 Y15.87 E0.02499
G1 X-30.116 Y14.437 E0.08021
G1 X-30.324 Y13.995 E0.02437
G1 X-30.962 Y12.519 E0.08022
G1 X-31.141 Y12.066 E0.0243
G1 X-31.686 Y10.552 E0.08028
G1 X-31.838 Y10.085 E0.0245
G1 X-32.286 Y8.542 E0.08016
G1 X-32.406 Y8.073 E0.02415
G1 X-32.758 Y6.503 E0.08027
G1 X-32.851 Y6.015 E0.02478
G1 X-33.102 Y4.427 E0.08021
G1 X-33.164 Y3.941 E0.02444
G1 X-33.315 Y2.338 E0.08033
G1 X-33.345 Y1.854 E0.02419
G1 X-33.396 Y0.249 E0.08011
G1 X-33.385 Y-.489 E0.03682
G1 X-33.183 Y-3.699 E0.16046
G1 X-33.102 Y-4.427 E0.03654
G1 X-32.851 Y-6.015 E0.08021
G1 X-32.702 Y-6.738 E0.03683
G1 X-31.902 Y-9.851 E0.16035
G1 X-31.6 Y-10.78 E0.04874
G1 X-30.417 Y-13.77 E0.16042
G1 X-30.116 Y-14.437 E0.03651
G1 X-29.387 Y-15.87 E0.08021
G1 X-29.019 Y-16.515 E0.03705
G1 X-27.295 Y-19.229 E0.16041
G1 X-26.874 Y-19.828 E0.03653
G1 X-25.888 Y-21.099 E0.08025
G1 X-25.579 Y-21.473 E0.0242
G1 X-24.517 Y-22.679 E0.08017
G1 X-24.178 Y-23.039 E0.02467
G1 X-23.04 Y-24.177 E0.08029
G1 X-22.495 Y-24.673 E0.03676
G1 X-20.018 Y-26.721 E0.16035
G1 X-19.434 Y-27.16 E0.03645
G1 X-18.103 Y-28.065 E0.0803
G1 X-17.691 Y-28.326 E0.02433
G1 X-16.308 Y-29.145 E0.08019
G1 X-15.873 Y-29.385 E0.02479
G1 X-14.439 Y-30.115 E0.08028
G1 X-13.995 Y-30.324 E0.02448
G1 X-12.519 Y-30.962 E0.08022
G1 X-12.066 Y-31.141 E0.0243
G1 X-10.552 Y-31.686 E0.08028
G1 X-10.085 Y-31.838 E0.0245
G1 X-8.542 Y-32.286 E0.08016
G1 X-8.073 Y-32.406 E0.02415
G1 X-6.503 Y-32.758 E0.08027
G1 X-6.015 Y-32.851 E0.02478
G1 X-4.427 Y-33.102 E0.08021
G1 X-3.941 Y-33.164 E0.02444
G1 X-2.338 Y-33.315 E0.08033
G1 X-1.854 Y-33.345 E0.02419
G1 X-.248 Y-33.396 E0.08016
G1 X0.49 Y-33.385 E0.03682
G1 X3.699 Y-33.183 E0.16041
G1 X4.427 Y-33.102 E0.03654
G1 X6.015 Y-32.851 E0.08021
G1 X6.738 Y-32.702 E0.03683
G1 X9.851 Y-31.902 E0.16035
G1 X10.78 Y-31.6 E0.04874
G1 X13.77 Y-30.417 E0.16042
G1 X14.439 Y-30.115 E0.03662
G1 X15.873 Y-29.385 E0.08028
G1 X16.516 Y-29.018 E0.03694
G1 X19.229 Y-27.295 E0.16034
G1 X19.828 Y-26.874 E0.03653
G1 X21.099 Y-25.888 E0.08025
G1 X21.473 Y-25.579 E0.0242
G1 X22.679 Y-24.517 E0.08017
G1 X23.039 Y-24.178 E0.02467
G1 X24.177 Y-23.04 E0.08029
G1 X24.673 Y-22.495 E0.03676
G1 X26.721 Y-20.018 E0.16035
G1 X27.16 Y-19.434 E0.03645
G1 X28.065 Y-18.103 E0.0803
G1 X28.326 Y-17.691 E0.02433
G1 X29.145 Y-16.308 E0.08019
G1 X29.385 Y-15.873 E0.02479
G1 X30.115 Y-14.439 E0.08028
G1 X30.324 Y-13.995 E0.02448
G1 X30.962 Y-12.519 E0.08022
G1 X31.14 Y-12.067 E0.02424
G1 X31.685 Y-10.554 E0.08023
G1 X31.838 Y-10.085 E0.02461
G1 X32.286 Y-8.541 E0.08021
G1 X32.406 Y-8.074 E0.02406
G1 X32.758 Y-6.505 E0.08022
G1 X32.851 Y-6.016 E0.02483
G1 X33.102 Y-4.428 E0.08021
G1 X33.164 Y-3.942 E0.02444
G1 X33.315 Y-2.339 E0.08033
G1 X33.345 Y-1.855 E0.02419
G1 X33.396 Y-.249 E0.08016
G1 X33.385 Y0.484 E0.03657
G1 X33.186 Y3.676 E0.15956
G1 X33.106 Y4.403 E0.03649
G1 X32.856 Y5.992 E0.08025
G1 X32.706 Y6.719 E0.03703
G1 X31.907 Y9.833 E0.16039
G1 X31.607 Y10.759 E0.04856
G1 X30.426 Y13.749 E0.16039
G1 X30.126 Y14.415 E0.03644
G1 X29.398 Y15.849 E0.08023
G1 X29.03 Y16.496 E0.03713
G1 X27.308 Y19.211 E0.1604
G1 X26.736 Y19.999 E0.04858
G1 X24.69 Y22.477 E0.16032
G1 X24.19 Y23.026 E0.03705
G1 X23.028 Y24.188 E0.08199
G1 X22.479 Y24.688 E0.03705
G1 X20.001 Y26.734 E0.16032
G1 X19.415 Y27.173 E0.03653
G1 X18.083 Y28.077 E0.08031
G1 X17.674 Y28.337 E0.02418
G1 X16.291 Y29.155 E0.08016
G1 X15.853 Y29.395 E0.02492
G1 X14.418 Y30.124 E0.0803
G1 X13.976 Y30.332 E0.02437
G1 X12.5 Y30.969 E0.0802
G1 X12.047 Y31.148 E0.0243
G1 X10.533 Y31.692 E0.08026
G1 X10.069 Y31.842 E0.02433
G1 X8.525 Y32.29 E0.08021
G1 X8.053 Y32.411 E0.02431
G1 X6.483 Y32.762 E0.08026
G1 X5.993 Y32.855 E0.02488
G1 X4.404 Y33.105 E0.08025
G1 X3.919 Y33.166 E0.02439
G1 X2.317 Y33.316 E0.08027
G1 X1.828 Y33.346 E0.02444
G1 X0.222 Y33.395 E0.08016
G1 X-.511 Y33.383 E0.03657
G1 X-3.72 Y33.179 E0.16042
G0 F3600 X-3.694 Y32.78
G1 F1800 X-4.385 Y32.704 E0.03468
G1 X-5.973 Y32.452 E0.08022
G1 X-6.658 Y32.309 E0.03491
G1 X-9.77 Y31.508 E0.16032
G1 X-10.435 Y31.303 E0.03472
G1 X-11.949 Y30.757 E0.0803
G1 X-12.381 Y30.586 E0.02318
G1 X-13.856 Y29.947 E0.0802
G1 X-14.275 Y29.75 E0.0231
G1 X-15.709 Y29.019 E0.0803
G1 X-16.32 Y28.67 E0.03511
G1 X-19.033 Y26.944 E0.16042
G1 X-19.777 Y26.402 E0.04592
G1 X-22.241 Y24.364 E0.15953
G1 X-22.758 Y23.895 E0.03483
G1 X-23.896 Y22.757 E0.08029
G1 X-24.366 Y22.239 E0.0349
G1 X-26.414 Y19.762 E0.16035
G1 X-26.831 Y19.207 E0.03463
G1 X-27.735 Y17.877 E0.08023
G1 X-27.981 Y17.489 E0.02292
G1 X-28.801 Y16.105 E0.08026
G1 X-29.031 Y15.688 E0.02376
G1 X-29.76 Y14.255 E0.08021
G1 X-29.957 Y13.836 E0.0231
G1 X-30.595 Y12.36 E0.08022
G1 X-30.765 Y11.93 E0.02307
G1 X-31.31 Y10.416 E0.08028
G1 X-31.454 Y9.973 E0.02324
G1 X-31.902 Y8.43 E0.08016
G1 X-32.016 Y7.986 E0.02287
G1 X-32.368 Y6.416 E0.08027
G1 X-32.456 Y5.952 E0.02356
G1 X-32.707 Y4.364 E0.08021
G1 X-32.765 Y3.903 E0.02318
G1 X-32.916 Y2.3 E0.08033
G1 X-32.945 Y1.841 E0.02295
G1 X-32.996 Y0.236 E0.08011
G1 X-32.985 Y-.464 E0.03493
G1 X-32.783 Y-3.674 E0.16046
G1 X-32.707 Y-4.364 E0.03463
G1 X-32.456 Y-5.952 E0.08021
G1 X-32.314 Y-6.639 E0.035
G1 X-31.514 Y-9.752 E0.16035
G1 X-31.228 Y-10.632 E0.04616
G1 X-30.045 Y-13.622 E0.16042
G1 X-29.76 Y-14.255 E0.03463
G1 X-29.031 Y-15.688 E0.08021
G1 X-28.681 Y-16.301 E0.03522
G1 X-26.957 Y-19.015 E0.16041
G1 X-26.558 Y-19.583 E0.03463
G1 X-25.572 Y-20.854 E0.08025
G1 X-25.279 Y-21.209 E0.02296
G1 X-24.217 Y-22.415 E0.08017
G1 X-23.896 Y-22.757 E0.0234
G1 X-22.758 Y-23.895 E0.08029
G1 X-22.24 Y-24.365 E0.0349
G1 X-19.763 Y-26.413 E0.16035
G1 X-19.209 Y-26.829 E0.03456
G1 X-17.878 Y-27.734 E0.0803
G1 X-17.488 Y-27.982 E0.02306
G1 X-16.105 Y-28.801 E0.08019
G1 X-15.691 Y-29.029 E0.02358
G1 X-14.257 Y-29.759 E0.08028
G1 X-13.836 Y-29.957 E0.02321
G1 X-12.36 Y-30.595 E0.08022
G1 X-11.93 Y-30.765 E0.02307
G1 X-10.416 Y-31.31 E0.08028
G1 X-9.973 Y-31.454 E0.02324
G1 X-8.43 Y-31.902 E0.08016
G1 X-7.986 Y-32.016 E0.02287
G1 X-6.416 Y-32.368 E0.08027
G1 X-5.952 Y-32.456 E0.02356
G1 X-4.364 Y-32.707 E0.08021
G1 X-3.903 Y-32.765 E0.02318
G1 X-2.3 Y-32.916 E0.08033
G1 X-1.841 Y-32.945 E0.02295
G1 X-.235 Y-32.996 E0.08016
G1 X0.465 Y-32.985 E0.03493
G1 X3.674 Y-32.783 E0.16041
G1 X4.364 Y-32.707 E0.03463
G1 X5.952 Y-32.456 E0.08021
G1 X6.639 Y-32.314 E0.035
G1 X9.752 Y-31.514 E0.16035
G1 X10.632 Y-31.228 E0.04616
G1 X13.622 Y-30.045 E0.16042
G1 X14.257 Y-29.759 E0.03475
G1 X15.691 Y-29.029 E0.08028
G1 X16.301 Y-28.681 E0.03504
G1 X19.014 Y-26.958 E0.16034
G1 X19.583 Y-26.558 E0.0347
G1 X20.854 Y-25.572 E0.08025
G1 X21.209 Y-25.279 E0.02296
G1 X22.415 Y-24.217 E0.08017
G1 X22.757 Y-23.896 E0.0234
G1 X23.895 Y-22.758 E0.08029
G1 X24.365 Y-22.24 E0.0349
G1 X26.413 Y-19.763 E0.16035
G1 X26.829 Y-19.209 E0.03456
G1 X27.734 Y-17.878 E0.0803
G1 X27.982 Y-17.488 E0.02306
G1 X28.801 Y-16.105 E0.08019
G1 X29.029 Y-15.691 E0.02358
G1 X29.759 Y-14.257 E0.08028
G1 X29.957 Y-13.836 E0.02321
G1 X30.595 Y-12.36 E0.08022
G1 X30.764 Y-11.932 E0.02296
G1 X31.309 Y-10.419 E0.08023
G1 X31.454 Y-9.973 E0.0234
G1 X31.902 Y-8.429 E0.08021
G1 X32.016 Y-7.987 E0.02277
G1 X32.368 Y-6.418 E0.08022
G1 X32.456 Y-5.953 E0.02361
G1 X32.707 Y-4.365 E0.08021
G1 X32.765 Y-3.904 E0.02318
G1 X32.916 Y-2.301 E0.08033
G1 X32.945 Y-1.842 E0.02295
G1 X32.996 Y-.236 E0.08016
G1 X32.986 Y0.459 E0.03468
G1 X32.787 Y3.651 E0.15956
G1 X32.711 Y4.341 E0.03463
G1 X32.461 Y5.93 E0.08025
G1 X32.319 Y6.619 E0.0351
G1 X31.52 Y9.733 E0.16039
G1 X31.235 Y10.612 E0.0461
G1 X30.054 Y13.602 E0.16039
G1 X29.769 Y14.234 E0.03459
G1 X29.041 Y15.668 E0.08023
G1 X28.692 Y16.281 E0.03519
G1 X26.97 Y18.996 E0.1604
G1 X26.427 Y19.744 E0.04611
G1 X24.381 Y22.222 E0.16032
G1 X23.908 Y22.744 E0.03514
G1 X22.746 Y23.906 E0.08199
G1 X22.224 Y24.379 E0.03514
G1 X19.746 Y26.425 E0.16032
G1 X19.191 Y26.842 E0.03463
G1 X17.859 Y27.746 E0.08031
G1 X17.47 Y27.992 E0.02296
G1 X16.087 Y28.81 E0.08016
G1 X15.672 Y29.038 E0.02362
G1 X14.237 Y29.767 E0.0803
G1 X13.817 Y29.964 E0.02314
G1 X12.341 Y30.601 E0.0802
G1 X11.911 Y30.771 E0.02307
G1 X10.397 Y31.315 E0.08026
G1 X9.957 Y31.458 E0.02308
G1 X8.413 Y31.906 E0.08021
G1 X7.966 Y32.021 E0.02303
G1 X6.396 Y32.372 E0.08026
G1 X5.931 Y32.46 E0.02361
G1 X4.342 Y32.71 E0.08025
G1 X3.882 Y32.768 E0.02313
G1 X2.28 Y32.918 E0.08027
G1 X1.816 Y32.947 E0.02319
G1 X0.21 Y32.996 E0.08016
G1 X-.485 Y32.984 E0.03468
G1 X-3.694 Y32.78 E0.16042
G0 F3600 X-3.669 Y32.381
G1 F1800 X-4.322 Y32.308 E0.03278
G1 X-5.91 Y32.056 E0.08022
G1 X-6.558 Y31.922 E0.03301
G1 X-9.67 Y31.121 E0.16032
G1 X-10.3 Y30.927 E0.03289
G1 X-11.814 Y30.381 E0.0803
G1 X-12.222 Y30.219 E0.0219
G1 X-13.697 Y29.58 E0.0802
G1 X-14.093 Y29.393 E0.02185
G1 X-15.527 Y28.662 E0.0803
G1 X-16.105 Y28.332 E0.03321
G1 X-18.818 Y26.606 E0.16042
G1 X-19.522 Y26.094 E0.04343
G1 X-21.986 Y24.056 E0.15953
G1 X-22.475 Y23.612 E0.03295
G1 X-23.613 Y22.474 E0.08029
G1 X-24.058 Y21.984 E0.03302
G1 X-26.106 Y19.507 E0.16035
G1 X-26.5 Y18.982 E0.03275
G1 X-27.404 Y17.652 E0.08023
G1 X-27.637 Y17.285 E0.02169
G1 X-28.457 Y15.901 E0.08026
G1 X-28.674 Y15.507 E0.02244
G1 X-29.403 Y14.074 E0.08021
G1 X-29.589 Y13.677 E0.02187
G1 X-30.227 Y12.201 E0.08022
G1 X-30.388 Y11.795 E0.02179
G1 X-30.933 Y10.281 E0.08028
G1 X-31.069 Y9.862 E0.02198
G1 X-31.517 Y8.319 E0.08016
G1 X-31.625 Y7.898 E0.02168
G1 X-31.977 Y6.328 E0.08027
G1 X-32.061 Y5.89 E0.02225
G1 X-32.312 Y4.302 E0.08021
G1 X-32.367 Y3.865 E0.02197
G1 X-32.518 Y2.262 E0.08033
G1 X-32.545 Y1.828 E0.02169
G1 X-32.596 Y0.223 E0.08011
G1 X-32.586 Y-.439 E0.03303
G1 X-32.384 Y-3.649 E0.16046
G1 X-32.312 Y-4.302 E0.03278
G1 X-32.061 Y-5.89 E0.08021
G1 X-31.927 Y-6.539 E0.03306
G1 X-31.127 Y-9.652 E0.16035
G1 X-30.856 Y-10.485 E0.0437
G1 X-29.673 Y-13.475 E0.16042
G1 X-29.403 Y-14.074 E0.03278
G1 X-28.674 Y-15.507 E0.08021
G1 X-28.344 Y-16.086 E0.03325
G1 X-26.62 Y-18.8 E0.16041
G1 X-26.242 Y-19.338 E0.0328
G1 X-25.256 Y-20.609 E0.08025
G1 X-24.978 Y-20.944 E0.02172
G1 X-23.916 Y-22.15 E0.08017
G1 X-23.613 Y-22.474 E0.02213
G1 X-22.475 Y-23.612 E0.08029
G1 X-21.985 Y-24.057 E0.03302
G1 X-19.508 Y-26.105 E0.16035
G1 X-18.984 Y-26.499 E0.03271
G1 X-17.653 Y-27.404 E0.0803
G1 X-17.284 Y-27.638 E0.0218
G1 X-15.901 Y-28.457 E0.08019
G1 X-15.51 Y-28.672 E0.02226
G1 X-14.076 Y-29.402 E0.08028
G1 X-13.677 Y-29.589 E0.02198
G1 X-12.201 Y-30.227 E0.08022
G1 X-11.795 Y-30.388 E0.02179
G1 X-10.281 Y-30.933 E0.08028
G1 X-9.862 Y-31.069 E0.02198
G1 X-8.319 Y-31.517 E0.08016
G1 X-7.898 Y-31.625 E0.02168
G1 X-6.328 Y-31.977 E0.08027
G1 X-5.89 Y-32.061 E0.02225
G1 X-4.302 Y-32.312 E0.08021
G1 X-3.865 Y-32.367 E0.02197
G1 X-2.262 Y-32.518 E0.08033
G1 X-1.828 Y-32.545 E0.02169
G1 X-.222 Y-32.596 E0.08016
G1 X0.44 Y-32.586 E0.03303
G1 X3.649 Y-32.384 E0.16041
G1 X4.302 Y-32.312 E0.03278
G1 X5.89 Y-32.061 E0.08021
G1 X6.539 Y-31.927 E0.03306
G1 X9.652 Y-31.127 E0.16035
G1 X10.485 Y-30.856 E0.0437
G1 X13.475 Y-29.673 E0.16042
G1 X14.076 Y-29.402 E0.03289
G1 X15.51 Y-28.672 E0.08028
G1 X16.087 Y-28.343 E0.03314
G1 X18.8 Y-26.62 E0.16034
G1 X19.338 Y-26.242 E0.0328
G1 X20.609 Y-25.256 E0.08025
G1 X20.944 Y-24.978 E0.02172
G1 X22.15 Y-23.916 E0.08017
G1 X22.474 Y-23.613 E0.02213
G1 X23.612 Y-22.475 E0.08029
G1 X24.057 Y-21.985 E0.03302
G1 X26.105 Y-19.508 E0.16035
G1 X26.499 Y-18.984 E0.03271
G1 X27.404 Y-17.653 E0.0803
G1 X27.638 Y-17.284 E0.0218
G1 X28.457 Y-15.901 E0.08019
G1 X28.672 Y-15.51 E0.02226
G1 X29.402 Y-14.076 E0.08028
G1 X29.589 Y-13.677 E0.02198
G1 X30.227 Y-12.201 E0.08022
G1 X30.388 Y-11.796 E0.02174
G1 X30.933 Y-10.283 E0.08023
G1 X31.07 Y-9.862 E0.02209
G1 X31.518 Y-8.318 E0.08021
G1 X31.625 Y-7.899 E0.02157
G1 X31.977 Y-6.33 E0.08022
G1 X32.061 Y-5.891 E0.0223
G1 X32.312 Y-4.303 E0.08021
G1 X32.367 Y-3.866 E0.02197
G1 X32.518 Y-2.263 E0.08033
G1 X32.545 Y-1.829 E0.02169
G1 X32.596 Y-.223 E0.08016
G1 X32.586 Y0.435 E0.03283
G1 X32.387 Y3.627 E0.15956
G1 X32.316 Y4.279 E0.03272
G1 X32.066 Y5.868 E0.08025
G1 X31.931 Y6.52 E0.03322
G1 X31.132 Y9.634 E0.16039
G1 X30.863 Y10.466 E0.04362
G1 X29.682 Y13.456 E0.16039
G1 X29.413 Y14.053 E0.03267
G1 X28.685 Y15.487 E0.08023
G1 X28.354 Y16.067 E0.03332
G1 X26.632 Y18.782 E0.1604
G1 X26.119 Y19.49 E0.04362
G1 X24.073 Y21.968 E0.16032
G1 X23.625 Y22.461 E0.03323
G1 X22.463 Y23.623 E0.08199
G1 X21.97 Y24.071 E0.03323
G1 X19.492 Y26.117 E0.16032
G1 X18.966 Y26.511 E0.03279
G1 X17.634 Y27.415 E0.08031
G1 X17.267 Y27.648 E0.02169
G1 X15.884 Y28.466 E0.08016
G1 X15.49 Y28.682 E0.02242
G1 X14.055 Y29.411 E0.0803
G1 X13.659 Y29.597 E0.02183
G1 X12.183 Y30.234 E0.0802
G1 X11.776 Y30.395 E0.02184
G1 X10.262 Y30.939 E0.08026
G1 X9.846 Y31.074 E0.02182
G1 X8.302 Y31.522 E0.08021
G1 X7.878 Y31.63 E0.02183
G1 X6.308 Y31.981 E0.08026
G1 X5.869 Y32.065 E0.0223
G1 X4.28 Y32.315 E0.08025
G1 X3.845 Y32.37 E0.02188
G1 X2.243 Y32.52 E0.08027
G1 X1.803 Y32.547 E0.02199
G1 X0.197 Y32.596 E0.08016
G1 X-.46 Y32.585 E0.03278
G1 X-3.669 Y32.381 E0.16042
G0 F3600 X-3.644 Y31.982
G1 F1800 X-4.259 Y31.913 E0.03087
G1 X-5.847 Y31.661 E0.08022
G1 X-6.458 Y31.535 E0.03112
G1 X-9.57 Y30.734 E0.16032
G1 X-10.164 Y30.551 E0.03101
G1 X-11.678 Y30.005 E0.0803
G1 X-12.063 Y29.852 E0.02067
G1 X-13.538 Y29.213 E0.0802
G1 X-13.911 Y29.037 E0.02058
G1 X-15.345 Y28.306 E0.0803
G1 X-15.891 Y27.995 E0.03135
G1 X-18.604 Y26.269 E0.16042
G1 X-19.268 Y25.786 E0.04096
G1 X-21.732 Y23.748 E0.15953
G1 X-22.192 Y23.329 E0.03104
G1 X-23.33 Y22.191 E0.08029
G1 X-23.75 Y21.73 E0.03111
G1 X-25.798 Y19.253 E0.16035
G1 X-26.169 Y18.757 E0.0309
G1 X-27.073 Y17.427 E0.08023
G1 X-27.293 Y17.081 E0.02046
G1 X-28.113 Y15.697 E0.08026
G1 X-28.318 Y15.326 E0.02115
G1 X-29.047 Y13.893 E0.08021
G1 X-29.222 Y13.519 E0.0206
G1 X-29.86 Y12.043 E0.08022
G1 X-30.012 Y11.659 E0.0206
G1 X-30.557 Y10.145 E0.08028
G1 X-30.685 Y9.75 E0.02072
G1 X-31.133 Y8.207 E0.08016
G1 X-31.235 Y7.811 E0.0204
G1 X-31.587 Y6.241 E0.08027
G1 X-31.666 Y5.827 E0.02103
G1 X-31.917 Y4.239 E0.08021
G1 X-31.969 Y3.828 E0.02067
G1 X-32.12 Y2.225 E0.08033
G1 X-32.146 Y1.816 E0.02045
G1 X-32.197 Y0.211 E0.08011
G1 X-32.187 Y-.414 E0.03119
G1 X-31.985 Y-3.624 E0.16046
G1 X-31.917 Y-4.239 E0.03087
G1 X-31.666 Y-5.827 E0.08021
G1 X-31.539 Y-6.44 E0.03123
G1 X-30.739 Y-9.553 E0.16035
G1 X-30.484 Y-10.338 E0.04118
G1 X-29.301 Y-13.328 E0.16042
G1 X-29.047 Y-13.893 E0.03091
G1 X-28.318 Y-15.326 E0.08021
G1 X-28.006 Y-15.872 E0.03137
G1 X-26.282 Y-18.586 E0.16041
G1 X-25.926 Y-19.092 E0.03087
G1 X-24.94 Y-20.363 E0.08025
G1 X-24.678 Y-20.68 E0.02052
G1 X-23.616 Y-21.886 E0.08017
G1 X-23.33 Y-22.191 E0.02086
G1 X-22.192 Y-23.329 E0.08029
G1 X-21.731 Y-23.749 E0.03111
G1 X-19.254 Y-25.797 E0.16035
G1 X-18.759 Y-26.168 E0.03086
G1 X-17.428 Y-27.073 E0.0803
G1 X-17.08 Y-27.294 E0.02057
G1 X-15.697 Y-28.113 E0.08019
G1 X-15.328 Y-28.316 E0.02101
G1 X-13.894 Y-29.046 E0.08028
